X:1
T:Upp, Min Tunga, 87.87.87
T:Upp, Min Tunga, 87.87.87
T:Swedish Koralbok, 1697
T:Public Domain Courtesy of the Cyber Hymnal™
C:Swedish Koralbok, 1697
Z:Public Domain
Z:Courtesy of the Cyber Hymnal™
%%score ( 1 2 ) ( 3 4 )
L:1/8
Q:1/4=112
M:4/4
K:D
V:1 treble 
V:2 treble 
V:3 bass 
V:4 bass 
V:1
 [A,D]2 [CE]2 [DF]2 D2 | [DF]2 [DG]2 [DA]2 [DF]2 | [EG]2 [EA]2 [B,B]2 [CA]2 | %3
 [DA]2 [D^G]2 !fermata![CA]4 | [A,D]2 [CE]2 [DF]2 D2 | [DF]2 [DG]2 [DA]2 [DF]2 | %6
 [EG]2 [EA]2 [B,B]2 [CA]2 | [DA]2 [D^G]2 !fermata![CA]4 | [Fd]2 [Fc]2 [DB]2 [DA]2 | %9
 [B,G]2 [DF]2 [DE]2 [CE]2 | [DF]2 [DG]2 [EA]2 [DF]2 | [DE]2 [CE]2 !fermata![A,D]4 |] %12
V:2
 x6 D2 | x8 | x8 | x8 | x6 D2 | x8 | x8 | x8 | x8 | x8 | x8 | x8 |] %12
V:3
 [D,F,]2 [A,,A,]2 [D,A,]2 [G,B,]2 | [D,A,]2 [G,,B,]2 [F,,A,]2 [B,,B,]2 | %2
 [E,B,]2 [C,A,]2 [D,F,]2 [C,E,]2 | [B,,F,]2 E,2 !fermata![A,,E,]4 | %4
 [D,F,]2 [A,,A,]2 [D,A,]2 [G,B,]2 | [D,A,]2 [G,,B,]2 [F,,A,]2 [B,,B,]2 | %6
 [E,B,]2 [C,A,]2 [D,F,]2 [C,E,]2 | [B,,F,]2 E,2 !fermata![A,,E,]4 | [B,,B,]2 [F,A,]2 G,2 [D,F,]2 | %9
 [E,G,]2 [B,,B,]2 [G,,B,]2 [A,,A,]2 | [D,A,]2 [B,,B,]2 [C,A,]2 [D,A,]2 | %11
 [G,,B,]2 [A,,A,]2 !fermata![D,F,]4 |] %12
V:4
 x8 | x8 | x8 | x2 E,2 x4 | x8 | x8 | x8 | x2 E,2 x4 | x4 G,2 x2 | x8 | x8 | x8 |] %12

